src/icons/file-yaml.svg

<?xml version="1.0" encoding="UTF-8" standalone="no"?>
<svg
   version="1.2"
   viewBox="0 0 16 16"
   width="16"
   height="16"
   id="svg1"
   sodipodi:docname="yaml(1).svg"
   inkscape:version="1.4 (e7c3feb100, 2024-10-09)"
   xmlns:inkscape="http://www.inkscape.org/namespaces/inkscape"
   xmlns:sodipodi="http://sodipodi.sourceforge.net/DTD/sodipodi-0.dtd"
   xmlns="http://www.w3.org/2000/svg"
   xmlns:svg="http://www.w3.org/2000/svg">
  <defs
     id="defs1" />
  <sodipodi:namedview
     id="namedview1"
     pagecolor="#505050"
     bordercolor="#eeeeee"
     borderopacity="1"
     inkscape:showpageshadow="0"
     inkscape:pageopacity="0"
     inkscape:pagecheckerboard="0"
     inkscape:deskcolor="#505050"
     inkscape:zoom="36.8125"
     inkscape:cx="8.0135823"
     inkscape:cy="8.0135823"
     inkscape:window-width="1326"
     inkscape:window-height="755"
     inkscape:window-x="20"
     inkscape:window-y="52"
     inkscape:window-maximized="0"
     inkscape:current-layer="svg1" />
  <title
     id="title1">tiny-square-svg</title>
  <style
     id="style1">
		.s0 { fill: #f1667f } 
		.s1 { fill: #000000 } 
	</style>
  <g
     id="Layer 1">
    <path
       id="path1"
       class="s0"
       d="M 6.1992188 3 C 5.0992188 3 4.4996094 2.9992187 4.0996094 3.1992188 C 3.6996094 3.3992188 3.3992187 3.6996094 3.1992188 4.0996094 C 2.9992187 4.4996094 3 5.0992188 3 6.1992188 L 3 9.8007812 C 3 10.900781 2.9992187 11.500391 3.1992188 11.900391 C 3.3992187 12.300391 3.6996094 12.600781 4.0996094 12.800781 C 4.4996094 13.000781 5.0992188 13 6.1992188 13 L 9.8007812 13 C 10.900781 13 11.500391 13.000781 11.900391 12.800781 C 12.300391 12.600781 12.600781 12.300391 12.800781 11.900391 C 13.000781 11.500391 13 10.900781 13 9.8007812 L 13 6.1992188 C 13 5.0992188 13.000781 4.4996094 12.800781 4.0996094 C 12.600781 3.6996094 12.300391 3.3992188 11.900391 3.1992188 C 11.500391 2.9992187 10.900781 3 9.8007812 3 L 6.1992188 3 z M 6.3007812 5 C 6.4341146 5 6.5658854 5.0329427 6.6992188 5.0996094 C 6.8325521 5.2329427 6.966276 5.3996094 7.0996094 5.5996094 L 8 7.4003906 L 8.9003906 5.5996094 C 8.9670573 5.3996094 9.0658854 5.2329427 9.1992188 5.0996094 C 9.3325521 5.0329427 9.4992187 5 9.6992188 5 C 9.8992187 5 10.065885 5.0658854 10.199219 5.1992188 C 10.332552 5.3325521 10.400391 5.466276 10.400391 5.5996094 C 10.400391 5.7329427 10.367448 5.833724 10.300781 5.9003906 C 10.300781 5.9670573 10.265885 6.0658854 10.199219 6.1992188 L 9 8.3007812 C 8.9333333 8.3674479 8.9003906 8.4333333 8.9003906 8.5 C 8.833724 8.5 8.7658854 8.5329427 8.6992188 8.5996094 L 8.6992188 10.199219 C 8.6992188 10.799219 8.4666667 11.099609 8 11.099609 C 7.4666667 11.099609 7.1992188 10.799219 7.1992188 10.199219 L 7.1992188 8.5996094 C 7.0658854 8.5329427 6.9670573 8.4341146 6.9003906 8.3007812 L 5.6992188 6.1992188 C 5.5658854 5.9992188 5.5 5.7996094 5.5 5.5996094 C 5.5 5.466276 5.5658854 5.3325521 5.6992188 5.1992188 C 5.8325521 5.0658854 6.0341146 5 6.3007812 5 z " />
  </g>
</svg>

<svg xmlns="http://www.w3.org/2000/svg" width="16" height="16" version="1.2"><path d="M6.2 3c-1.1 0-1.7 0-2.1.2q-.6.3-.9.9c-.2.4-.2 1-.2 2.1v3.6c0 1.1 0 1.7.2 2.1q.3.6.9.9c.4.2 1 .2 2.1.2h3.6c1.1 0 1.7 0 2.1-.2q.6-.3.9-.9c.2-.4.2-1 .2-2.1V6.2c0-1.1 0-1.7-.2-2.1q-.3-.6-.9-.9c-.4-.2-1-.2-2.1-.2zm.1 2a.9.9 0 0 1 .4.1q.2.2.4.5L8 7.4l.9-1.8q.1-.3.3-.5.2-.1.5-.1t.5.2.2.4-.1.3q0 .1-.1.3L9 8.3q-.1.1-.1.2-.1 0-.2.1v1.6q0 .9-.7.9-.8 0-.8-.9V8.6a.65.65 0 0 1-.3-.3L5.7 6.2q-.2-.3-.2-.6 0-.2.2-.4t.6-.2" style="fill:#f1667f"/></svg>
